src/icons/direct-debits/outline_16.svg

<svg width="16" height="16" viewBox="0 0 16 16" fill="none" xmlns="http://www.w3.org/2000/svg">
<path d="M13.2076 10C12.544 12.532 10.2402 14.4 7.5 14.4C4.24152 14.4 1.6 11.7585 1.6 8.5C1.6 5.24152 4.24152 2.6 7.5 2.6C9.55742 2.6 11.3689 3.6531 12.4247 5.24967L10.109 4.62916L9.69487 6.17464L14.5657 7.47978L15.8708 2.60897L14.3253 2.19485L13.748 4.34968C12.404 2.33053 10.1074 1 7.5 1C3.35786 1 0 4.35786 0 8.5C0 12.6421 3.35786 16 7.5 16C11.1284 16 14.1551 13.4234 14.85 10H13.2076Z" fill="#00BAFF"/>
<path d="M7.80004 5.00003L7.80004 8.57189L10.4438 10.3344L9.55628 11.6657L6.20003 9.42818L6.20004 5.00003L7.80004 5.00003Z" fill="#00BAFF"/>
</svg>

<svg xmlns="http://www.w3.org/2000/svg" width="16" height="16" fill="none">
  <defs/>
  <path fill="#00BAFF" d="M13.2 10a5.9 5.9 0 11-.78-4.75l-2.31-.62-.42 1.54 4.88 1.31 1.3-4.87-1.54-.42-.58 2.16a7.5 7.5 0 101.1 5.65h-1.64z"/>
  <path fill="#00BAFF" d="M7.8 5v3.57l2.64 1.76-.88 1.34L6.2 9.43V5h1.6z"/>
</svg>
